X:1
T:The Laird o' Elfin
M:4/4
L:1/4
K:F
 D| D3/2 D/2 B A| G D/2D/2 C z| D2 D2| C D/2F/2 G| B/2c/2| d3/2 d/2 B A|\
 G/2 D/2- D C B,/2C/2| D3/2 C/2 B, C| D G G||
